X:1
T:Title
%%score { ( 1 3 ) | 2 }
L:1/8
Q:1/4=108
M:4/4
K:G
V:1 treble nm="Grand Piano"
V:3 treble 
V:2 bass 
V:1
 B3 A AGDG | [G,DF]4 [G,CE]2 z2 | [B,D]3 [B,DG] [^CGA]2 [CGB]2 | [DFA]6 z2 | %4
w: E.~S.~Lorenz * * * * *||||
 [DB]3 [CA] [CA][B,G][B,D][B,G] | [G,DF]4 [G,CE]2 z2 | [G,B,D]3 [B,DG] [CFA]2 [DFB]2 | [B,G]6 z2 | %8
w: ||||
 [DGB]3 [DGB] [DGB][DFA][DGB][DAc] | [Bd]6 z2 | [FA]3 [FA] [FA][EG][FA][GB] | [Ac]6 z2 | %12
w: ||||
 [DBd]3 [DAc] [DGB][CFA][B,G][DB] | [CE]6 z2 | [G,B,D]3 [B,DG] [CFA]2 [DFB]2 | [B,G]6 z2 |] %16
w: ||||
V:2
 [G,D]3 [G,C] [G,C][G,B,][G,B,][G,B,] | C,4 C,2 z2 | G,3 G, E,2 A,,2 | D,6 z2 | G,3 G, G,G,G,G, | %5
 C,4 C,2 z2 | D,3 D, D,2 D,2 | G,,6 z2 | G,3 G, G,G,G,G, | G,G,G,G, G,2 z2 | %10
 [D,D]3 [D,D] [D,D][D,D][D,D][D,D] | [D,D]D,D,D, D,2 z2 | G,3 G, G,G,G,G, | C,C,C,C, C,2 z2 | %14
 D,3 D, D,2 D,2 | G,,6 z2 |] %16
V:3
 x8 | x8 | x8 | x8 | x8 | x8 | x8 | x8 | x8 | DDDD D2 z2 | x8 | z DDD D2 z2 | x8 | %13
 G,G,G,G, G,2 z2 | x8 | x8 |] %16

